flaticon/education/briefcase.svg

<svg xmlns="http://www.w3.org/2000/svg" width="32" height="32" viewBox="0 0 24 24">
    <path d="M 21.601562 6.800781 L 16.734375 6.800781 L 16.121094 3.800781 C 16 3.199219 15.519531 2.800781 14.921875 2.800781 L 9.078125 2.800781 C 8.480469 2.800781 8 3.199219 7.878906 3.800781 L 7.265625 6.800781 L 2.398438 6.800781 C 1.078125 6.800781 0 7.878906 0 9.199219 L 0 18.800781 C 0 20.121094 1.078125 21.199219 2.398438 21.199219 L 21.601562 21.199219 C 22.921875 21.199219 24 20.121094 24 18.800781 L 24 9.199219 C 24 7.878906 22.921875 6.800781 21.601562 6.800781 Z M 8.640625 3.960938 C 8.679688 3.761719 8.878906 3.601562 9.078125 3.601562 L 14.921875 3.601562 C 15.121094 3.601562 15.320312 3.761719 15.359375 3.960938 L 15.921875 6.800781 L 15.148438 6.800781 L 14.921875 5.441406 C 14.839844 4.839844 14.320312 4.398438 13.71875 4.398438 L 10.320312 4.398438 C 9.679688 4.398438 9.199219 4.839844 9.078125 5.398438 L 8.851562 6.800781 L 8.078125 6.800781 Z M 14.320312 6.800781 L 9.679688 6.800781 L 9.839844 5.558594 C 9.878906 5.359375 10.078125 5.199219 10.28125 5.199219 L 13.679688 5.199219 C 13.921875 5.199219 14.078125 5.359375 14.121094 5.558594 Z M 23.199219 18.800781 C 23.199219 19.679688 22.480469 20.398438 21.601562 20.398438 L 2.398438 20.398438 C 1.519531 20.398438 0.800781 19.679688 0.800781 18.800781 L 0.800781 9.199219 C 0.800781 8.320312 1.519531 7.601562 2.398438 7.601562 L 21.601562 7.601562 C 22.480469 7.601562 23.199219 8.320312 23.199219 9.199219 Z M 23.199219 18.800781"/>
    <path d="M 19.199219 8.800781 L 4.800781 8.800781 C 3.480469 8.800781 2.398438 9.878906 2.398438 11.199219 L 2.398438 18.800781 C 2.398438 19.039062 2.558594 19.199219 2.800781 19.199219 C 3.039062 19.199219 3.199219 19.039062 3.199219 18.800781 L 3.199219 11.199219 C 3.199219 10.320312 3.921875 9.601562 4.800781 9.601562 L 19.199219 9.601562 C 20.078125 9.601562 20.800781 10.320312 20.800781 11.199219 L 20.800781 19.199219 C 20.800781 19.441406 20.960938 19.601562 21.199219 19.601562 C 21.441406 19.601562 21.601562 19.441406 21.601562 19.199219 L 21.601562 11.199219 C 21.601562 9.878906 20.519531 8.800781 19.199219 8.800781 Z M 19.199219 8.800781"/>
    <path d="M16.398438 11.601562C16.160156 11.601562 16 11.761719 16 12L16 17.421875 15.238281 18.558594C15.121094 18.761719 15.160156 19 15.359375 19.121094 15.441406 19.160156 15.519531 19.199219 15.601562 19.199219 15.71875 19.199219 15.839844 19.121094 15.921875 19L16.625 17.941406C16.734375 17.871094 16.800781 17.753906 16.800781 17.601562L16.800781 12C16.800781 11.761719 16.640625 11.601562 16.398438 11.601562zM12.558594 11.960938L6.679688 11.960938C5.839844 11.960938 5.199219 12.640625 5.199219 13.441406L5.199219 16.121094C5.199219 16.960938 5.878906 17.601562 6.679688 17.601562L12.519531 17.601562C13.359375 17.601562 14 16.960938 14.039062 16.121094L14.039062 13.441406C14.039062 12.601562 13.359375 11.960938 12.558594 11.960938zM13.238281 16.160156C13.238281 16.519531 12.921875 16.839844 12.558594 16.839844L6.679688 16.839844C6.320312 16.839844 6 16.519531 6 16.160156L6 13.480469C6 13.121094 6.320312 12.800781 6.679688 12.800781L12.558594 12.800781C12.921875 12.800781 13.238281 13.121094 13.238281 13.480469zM13.238281 16.160156"/>
</svg>

<svg xmlns="http://www.w3.org/2000/svg" width="32" height="32" viewBox="0 0 24 24">
    <path d="M21.602 6.8h-4.868l-.613-3c-.121-.6-.601-1-1.2-1H9.079c-.598 0-1.078.4-1.2 1l-.612 3H2.398A2.404 2.404 0 0 0 0 9.2v9.6a2.404 2.404 0 0 0 2.398 2.4h19.204A2.404 2.404 0 0 0 24 18.8V9.2a2.404 2.404 0 0 0-2.398-2.4zM8.64 3.96c.039-.198.238-.358.437-.358h5.844c.2 0 .398.16.437.359l.563 2.84h-.774l-.226-1.36a1.212 1.212 0 0 0-1.203-1.043H10.32c-.64 0-1.12.442-1.242 1l-.226 1.403h-.774zm5.68 2.84H9.68l.16-1.241c.039-.2.238-.36.441-.36h3.399c.242 0 .398.16.441.36zm8.878 12c0 .88-.719 1.598-1.597 1.598H2.398a1.602 1.602 0 0 1-1.597-1.597V9.199c0-.879.719-1.597 1.597-1.597h19.204c.878 0 1.597.718 1.597 1.597zm0 0"/>
    <path d="M19.2 8.8H4.8a2.407 2.407 0 0 0-2.402 2.4v7.6c0 .24.16.4.403.4.238 0 .398-.16.398-.4v-7.6c0-.88.723-1.598 1.602-1.598h14.398c.88 0 1.602.718 1.602 1.597v8c0 .242.16.403.398.403.242 0 .403-.16.403-.403v-8a2.407 2.407 0 0 0-2.403-2.398zm0 0"/>
    <path d="M16.398 11.602c-.238 0-.398.16-.398.398v5.422l-.762 1.137c-.117.203-.078.441.121.562.082.04.16.078.243.078.117 0 .238-.078.32-.199l.703-1.059a.387.387 0 0 0 .176-.34V12c0-.238-.16-.398-.403-.398zm0 0M12.559 11.96h-5.88c-.84 0-1.48.68-1.48 1.481v2.68c0 .84.68 1.48 1.48 1.48h5.84c.84 0 1.481-.64 1.52-1.48v-2.68c0-.84-.68-1.48-1.48-1.48zm.68 4.2c0 .36-.317.68-.68.68h-5.88c-.359 0-.679-.32-.679-.68v-2.68c0-.359.32-.68.68-.68h5.879c.363 0 .68.321.68.68zm0 0"/>
</svg>
